X:1
T:Violin Sonata in g-minor, HWV 368
T:George Frideric Handel (1685 — 1759) Arr. by : Carl Friedberg (1872–1955)
T:Violin Sonata in g-minor, HWV 368
T:Transcribed for Recorder and B/C in c-minor from IMSLP#98070 PDF File
T:Public Domain
T:Public Domain
T:Public Domain
T:Public Domain
T:Public Domain
C:George Frideric Handel (1685 — 1759)
Z:Public Domain
%%score [ 1 2 ] { ( 3 4 ) | ( 5 6 ) }
L:1/8
Q:1/4=60
M:4/4
K:Eb
V:1 treble nm="Alto Recorder" snm="A. Rec."
V:2 bass nm="Viola da gamba" snm="Vla. d. g."
V:3 treble nm="Harpsichord" snm="Hch."
V:4 treble 
V:5 bass 
V:6 bass 
V:1
"^1. Andante" c'2- c'/(!tenuto!g/!tenuto!e/!tenuto!c/) a2- a/(!tenuto!c'/!tenuto!b/!tenuto!a/) | %1
 g2 z/ (b/g/e/) (c'2- c'/d'/4f'/4d'/4c'/4=b/4c'/4) | %2
 =b2 z/ (d'/!tenuto!d'/!tenuto!d'/) (f2- f/g/)!tenuto!e/!tenuto!d/ | %3
 g/(=B/c/d/) (Pd>c) c>(c =e/g/_b/_d'/) | (=e2- (e/b/)!tenuto!a/!tenuto!g/) a>(g (=a/c'/)_e'/c'/) | %5
 (^f>=a) (f/c'/)!tenuto!d/!tenuto!c'/ (!>!b2 =b2 | c'/)(c'/e'/c'/ _b/_d'/)c'/g/ (a2 =a>)a | %7
 b/(c'/_d'/c'/) =b>(b c'/=d'/e'/d'/ c'/_b/)!tenuto!=a/!tenuto!g/ | %8
 ^f>((d g/)(d/=a/))(d/ b>)(g c'/)(g/d'/)(g/ | e'/)(^f/g/=a/) (a>g) (g/d'/c'/=b/ c'/e'/)d'/c'/ | %10
 (d'/^f/g/)!tenuto!=A/ (A>G) G(b/=f/ =e/b/_a/g/) | a4- a/(b/d/b/ B/b/f/a/) | %12
 (g/d/e/f/) (f>e) e>(g b/c'/_d'/f/) | %13
 (=e/>f/g/4a/4b/4c'/8_d'/8) (c'/>b/c'/>g/ a>)((b c'/=d'/_e'/)g/) | %14
 (^f/>g/=a/4b/4c'/4d'/8e'/8) (d'/>c'/d'/b/4a/4) (b/c'/d'/c'/ =b/)(d'/g/d'/) | %15
 c'>(_b _a/c'/g/c'/) (=f2- f/d'/)!tenuto!f/!tenuto!e/ | f3 (d e/g/)e/(c/ _d/f/a/)(c/ | %17
 =B/g/=d'/)(g/ f/g/d'/)(f/ e/g/c'/)(=e/ f/a/c'/)(_e/ | %18
 d/f/b/)(d/ e/g/c'/)(e/ f/a/)(d/a/) (=B/g/d'/)(g/ | %19
 f/d'/)!tenuto!=b/!tenuto!g/ !tenuto!d'/!tenuto!b/!tenuto!f/!tenuto!=B/ !tenuto!_a/(B/c/d/) (Td>c) | %20
 !fermata!c8 |][M:4/4]"^2. Allegro"[Q:1/4=120] g | c'gee' !tenuto!d'3 b | ac'ba g3 b | b4 c'4- | %25
 c'4 d'4- | d'4 e'c'c'g | a4- a_bfa | %28
 !tenuto!g/!tenuto!b/!tenuto!e/!tenuto!b/ !tenuto!g/!tenuto!b/!tenuto!e/!tenuto!b/ a/c'/e/c'/ a/c'/e/c'/ | %29
 g/b/e/b/ g/b/e/b/ a/c'/e/c'/ a/c'/e/c'/ | c'=ac'a d'bfd' | (c'=a)(c'a) d'bf(b | %32
 g/)b/e/b/ g/b/e/b/ _a/c'/e/c'/ a/c'/e/c'/ | b/d'/f/d'/ b/d'/f/d'/ c'/e'/g/e'/ c'/e'/g/e'/ | %34
 g/b/e/b/ g/b/e/b/ a/c'/b/a/ b/d/f/a/ | (g/f/)e/f/ (d/e/)F/d/ e2 z2 | %36
 (b/g/)b/e/ (b/g/)b/e/ (c'/a/)c'/e/ (c'/a/)c'/e/ | %37
 (d'/b/)d'/f/ (d'/b/)d'/f/ (e'/c'/)e'/g/ (e'/c'/)e'/g/ | (b/g/)b/e/ (b/g/)b/e/ a/g/f/e/ d/c/B/A/ | %39
 (G/a/)g/f/ (f>e) e2 z :: g | !tenuto!c'g=eb =a2 z f | bfdb g2 z g | %43
 ((c'e'd')!tenuto!c') =b2 z !>!b | (c'_b)=ag ^fd g2- | g=a (T^f2{=ef)} g2 (b/d'/)g/(d'/ | %46
 (c'/)e'/)c'/e'/ (=a/c'/)=f/c'/ (b/d'/)b/d'/ (g/b/)_e/b/ | %47
 (_a/c'/)a/c'/ (f/a/)d/a/ (g/b/)g/b/ (e/g/)c/g/ | %48
 (f/a/)f/a/ (d/f/)"^3 2"=B/f/ e/(c'/=b/c'/) g/(c'/b/c'/) | %49
 g/(d'/c'/d'/) g/(d'/c'/d'/) g/(e'/d'/e'/) g/(e'/d'/e'/) | %50
 g/(f'/e'/f'/) g/(f'/e'/f'/) g/(g'/f'/g'/) g/(f'/e'/f'/) | %51
 g/(e'/d'/e'/) g/(f'/e'/f'/) g/(e'/d'/e'/) (g/e'/)!tenuto!d'/!tenuto!c'/ | %52
 =b2 z =B (c/d/4c/4)!tenuto!B/!tenuto!c/ (d/e/4d/4)!tenuto!c/!tenuto!d/ | %53
 (e/f/4e/4)!tenuto!d/!tenuto!e/ (f/g/4f/4)!tenuto!e/!tenuto!f/ g2 z c' | %54
 (_d'c')!tenuto!d'!tenuto!e' !tenuto!f'!tenuto!e'(f'e') | (_d'e')!tenuto!f'!tenuto!c' =b2 c'2- | %56
 c'=d' T=b2{=ab} (c'_b)_ag | fe_dc =BG c2- | c=d =B2{=AB} !tenuto!c!tenuto![Ee] T[Dd]7/4[Cc]/4 | %59
 [Cc]6 z :| z/8 |[M:3/4]"^Adagio"[Q:1/4=60] g2 (c'3 d') | (e'3 c') g2 | a2 (f3 b) | g2 (e3 g) | %65
 c'2 (=a2 bc') | (^f3 =d') (g2- | g3 =a) ^f2 | g6 :: g2 (_a3 b) | (=e4 g2) | (c'f) (_e3 f) | %72
 (f2 e2) e'2- | e'2 !tenuto!d'!tenuto!c' d'2- | d'2 (!tenuto!c'!tenuto!=b) (c'2- | c'3 d') =b2 |1 %76
 c'6 :|2 c'6 |][M:12/8][Q:3/8=100]"^Allegro" (c'/d'/) | e'd'c' (c'd')=b (c'd')e' (d'2 c') | %80
 (_bc'b) (ab)f (ga)b (gab) | (fab) (eab) (dfb) (Geb) | %82
 (Ae)!tenuto!c' (=Af)!tenuto!c' (Bf)!tenuto!d' (=Bg)!tenuto!d' | %83
 (cg)!tenuto!e' (=Af)!tenuto!e' (_Bf)!tenuto!d' (Ge)!tenuto!d' | %84
 ((=Ae)!tenuto!c') (=ab)g (T^f3 g3) | =a3 b3 c'3 d'3 | e'2 (^f g=ab) (dfa) (gab) | %87
 (c'd'e') T^f3 g3 z z :: b | (_d'c'b) (ba)g (ag)f (agf) | (c'ba) (ag)f (gf)e (gfe) | %91
 (e'c'a) (c'af) (c'af) (afc) | d3 (bg)!tenuto!e (c' e')!tenuto!g f3 | e3 b(ge) c'(ae) d'(be) | %94
 e'(be) (bed) (cde) (Be)d | e3- ec'd' (e'd'c') (c'd')=b | (c'd')e' (d'2 c') (_bc'b) (ab)f | %97
 (ga)b (gab) (fab) (eab) | (dfb) (Geb) (Ae)!tenuto!c' (=Af)!tenuto!c' | %99
 (Bf)!tenuto!d' (=Bg)!tenuto!d' ((cg)e') (e'f=A) | ((_Af)!tenuto!_d') (d'eG) (Ae)c' (=d'2 c') | %101
 =b3 z2 z (c'ge c')_ba | (bgd b)ag (afc a)gf | (Gd!<(!=b) (c'd'e') (gbc') (d!<)!c'b) | %104
 ce'c- c(d/c/_B/A/) Bd'B- B(c/B/A/G/) | Ac'A- A(B/A/G/F/) (Gf=b) (c'd'e') | %106
 (g=bc') (dc'b) [Cc]3 (aga | d'3) (gfg c'3) (fef | =b3)!<(! (c'd'e') (gc')d' (d!<)!c'b) | %109
 [Cc]3 (aga) d'3 (gfg) | c'3 (fef) =b3 (c'd'e') | (gc'd') (dc'=b) [Cc]3- [Cc]2 :| %112
V:2
 G,3 C- C((C D2)) | (E/B,/E/B,/) G,2 z/ A,/C/A,/ F,2 | (G,/D,/)D,/E,/ F,2 z/ (D,/D/C/ =B,)G, | %3
 C(F,G,G,,) C,C ((_B,2 | B,/)C/_D/B,/) C,=E, F,2 _E,C, | %5
 (D,/^F,/=A,/D/) D,F, (G,/B,/D/B,/ G,/D,/=F,/G,/) | (E,2 =E,2 F,/)(F/A/F/ _E/)(E/_D/C/) | %7
 _D2 =D>D C2 EC | DCB,=A, G,=F,E,D, | C,/(C/B,/C/ D)D, G,=F,E,=A, | B,CDD, G,2 CC, | %11
 (F,/G,/A,/G,/ F,/G,/F,/E,/) D,2 DD, | (E,G,/A,/ B,)B,, E,2 z2 | C2 C,2 F,2 E2 | %14
 D2 D,2 (G,>_A, G,)=F, | (E,/G,/D,/G,/ C,)E (D/A/D/F/ D)C | (=B,/D/B,/D/ G,>)B, C2 F,2 | %17
 G,2 z G C2 z F, | B,G,CA, DC=B,G, | G,,2 G,2 (F,E,/F,/ G,)G,, | !fermata!C,8 |][M:4/4] z | %22
 z2 z C !tenuto!B,!tenuto!=A,!tenuto!B,!tenuto!G, | %23
 !tenuto!F,!tenuto!E,!tenuto!D,!tenuto!B,, !tenuto!E,!tenuto!E(!tenuto!D!tenuto!E) | %24
 G,EE,E A,EG,E | A,FF,F B,F=A,F | B,G=B,G C2 z2 | z CFC D2 B,2 | E,G,B,G, (CB,C)A, | %29
 E,G,B,G, (CB,C)A, | =A,/C/F,/C/ A,/C/F,/C/ B,/D/F,/D/ B,/D/F,/D/ | %31
 =A,/C/F,/C/ A,/C/F,/C/ B,/D/F,/D/ B,/D/F,/D/ | E2 E,2 _A,2 F,2 | B,2 G,2 (C3 B,/A,/) | %34
 G,2 E,2 (F,E,D,)B, | E,(A,B,)B,, (E,/B,,/G,,/B,,/ E,,2) | G,2 E,2 A,2 z A, | B,3 B, (C3 B,/A,/) | %38
 (G,2 B,)G, !tenuto!C2 z A, | B,A,B,B,, !tenuto!E,2 z :: z | z2 z C FC=A,F | D2 z B, EB,G,B, | %43
 A,2 z F, (G,A,G,)F, | E,DCB, =A,2 B,C | DCDD, G,2 z2 | =A,2 C/F/A,/F/ D2 E/G/C/G/ | %47
 F2 D/F/B,/F/ E2 C/E/=A,/E/ | D2 =B,/D/G,/D/ C2 EC | G,=A,=B,G, C_B,C_A, | G,=A,=B,G, EDED | %51
 C=B,CD EFEF | (G,/F,/G,/=A,/ G,/A,/=B,/G,/) (A,/B,/4A,/4).G,/.A,/ (B,/C/4B,/4)A,/B,/ | %53
 (C/D/4C/4).=B,/.C/ (D/E/4D/4).C/.D/ EDCE, | (F,E,)F,_G, A,G,(A,G,) | (F,_G,)A,F, =G,F,E,C | %56
 A,F,G,G,, C,2 C_B, | A,G,F,E, D,2 E,F, | G,2 G,,2 C,F,G,G,, | C,6 z :| z/8 |[M:3/4] C2 A,2 G,2 | %62
 C,2 D,2 E,2 | F,2 D,4 | E,6 | E,2 C,4 | D,2 DC B,2 | C2 D2 D,2 | G,6 :: =E,2 F,2 B,2 | C4 B,2 | %71
 A,2 G,2 A,2 | B,2 E,2 C2 | F,4 [B,,B,]2 | E,4 A,2 | G,2 G,,4 |1 (C,2 D,2 E,2) :|2 C,6 |] %78
[M:12/8] G, | C,3 (EF)D (EF)G F2 E | (DEF) (B,C)D E2 E, (EFG) | D2 D, C,2 C B,3 E,3 | %82
 A,3 F,3 B,3 G,3 | C3 F,3 B,3 E,3 | =A,3 B,2 C (DED B,A,G,) | (^F,=E,F, G,F,G, =A,G,A, B,A,B,) | %86
 C2 D B,2 C (D2 C B,=A,G,) | (=A,B,C DCD) G,3 z z :: G, | (=E,3 C,3 F,3) z2 z | %90
 (D,3 B,,3 _E,3) z2 z | C,3 z2 z A,2 A,3 z | A,3 G,3 A,3 B,3 | E,3 G,3 A,3 B,3 | C3 G,3 A,3 B,3 | %95
 E,3 E, z z C,2 D, E,F,D, | E,F,G, F,(FE DED B,CD | E2) E, (EFG) D3 C3 | B,3 E,3 A,3 F,3 | %99
 B,3 G,3 C3 F,3 | B,3 E,3 A,3 (FGA) | (G(FG) DEF) (E2 C A,B,C) | (D2 B, G,A,B,) (C2 A, F,G,A,) | %103
 (G,2 F, E,2 D,) (E,2 F, G,2) G,, | C,2 (C A,B,C D2 B, G,A,B, | C2 A, F,G,A,) (G,2 F, E,2 D,) | %106
 E,2 F, G,2 G,, C,3 FEF | B,CD EDE A,B,C DCD | (G,A,F, E,2 D,) (E,2 F, G,2 G,,) | %109
 C,3 FEF B,CD EDE | A,B,C DCD G,A,F, E,2 D, | E,2 F, G,2 G,, C,3- C,2 :| %112
V:3
 (c3 e dc B2) | B2 [EBe]2 [EAc]2 [DAd]2 | [DG=B]2 [DAd]2 (B>c d)B | c3- =B c2 (_d2 | %4
 _B3 c) (c2 f2) | (^f3 d) d2 [=Bdg]2 | ([cg]2 c2) c2 [cf]2 | (f2- f/_a/g/f/ e2 c=A) | %8
 [^F=A]2 d4 ((g2 | [eg])d/e/ c2) (_Bdce) | (de c2 [GB]d =e2) | f4 [AB] [AB]2 [AB] | %12
 [GB]>c A2 [EG][GB][GB][GB] | [GB][GB][=EB][EBc] [FAc][FAc][Gc][Gc] | %14
 [=Ac][Ac][^Fc][Fc] [GB]>c d[=Bd] | (c d eg f3 a) | (g2 =b)f e2 (_d>c) | ([G=B] g2 f (e=e)f_e) | %18
 (d2 e2 f d2 [=Bd]) | f2 =B2 Bc- cB | !fermata!c8 |][M:4/4] z | %22
 z2 z G !tenuto!G!tenuto!=A!tenuto!G!tenuto!B | c2 !tenuto!f!tenuto!d B2 z2 | e8 | f8 | g4- g2 z2 | %27
 z2 (c2 B2 =d2) | e2 z e e3 [ea] | [eg]2 z e e3 e | f2 z [ce=a] [Bdfb]2 z [Bd] | %31
 [Fcf]2 z [ce=a] [Bdfb]2 z B | z2 (e2 c3 e) | (d3 (f) e3 g) | e4 (def)B | [GB] F2 [FAd] [EGe]2 z2 | %36
 B2 G2 c2 z e | (d2 [_Af]2 [Ge]2) [Geg]2 | (b2 g)e !tenuto![Aea]2 z F | G (e2 d) [GBe]2 z :: z | %41
 z2 z [B=eg] [=Acf]2 z [Acf] | [Bfb]2 z [Bdf] [Beg]2 z [Ge] | [Ece]2 z a [dg]feg | (gf)ed c2 de | %45
 [_Bd][ce] [=Ac]2 [GB]2 [GB][Bd] | [cef]2 (=af) f2 (ge) | e2 (fd) d2 (ec) | c2 (d=B) [EGc]2 z2 | %49
 =BcdB edef | (g4- g3 f) | (ede)=B (cdc)d | [G=B]2 z [GBg] [Gg]4- | [Gg]4- [Gg]3 [Gg] | %54
 z2 z _a (a4 | a4) g=dce | [cf][cda] [=Bdg]2 [ceg][df]ed | c_B ([Aa]2 [=Bg]2) [cg][ca] | %58
 g4- gag=b | [cegc']6 z :| z/8 |[M:3/4] (c4- c=B) | c4 c2 | ([Ac]4 B2- | B2) z2 z2 | [Gc]2 [Ge]4 | %66
 [^F=Ad]4 [Gd]2 | e2 d4- | d6 :: ([_Bg]2 [_Af]4 | =e4) e2 | [Fcf]2 (_e4- | ed e2) ([Gg]2 | %73
 ([Aa]4) [Gg]2- | [Gg]4 [Ff]2) | [Ge]4 [FGd]2 |1 [Gc]6 :|2 [EGc]6 |][M:12/8] G | %79
 [EGc]3 g2 f (ed)c =B2 c | [F_B]2 z [FAd]2 B [GB]2 z B3 | [FB]2 z [EA]2 z [DA]2 z [EG]2 z | %82
 A3 =A3 B3 =B3 | G3 =A3 F3 G3 | [EGc]2 z [Ge]2 B =A3 (dcB) | [Dd]4 B2 ^F3 G3 | %86
 [Ge]2 [^F=A] G2 z (A2 d- dcB | c2) z [^F=A]3 [DB]3 z z :: z | (g3 =e3 f3) (cBA) | %90
 (f3 d3 _e3) (BAG) | [EAe]2 z (E2 A) [Fc]3 (e3 | dFB) [Ee]6 dcB | [GBe]EG B3 c3 d3 | %94
 e3 (B3 c3 B3) | [EGB]3- [EGB] z z e2 f g2 f | edc (=B2 c) B2 z [FAd]2 B | %97
 [GB]2 z B3 [FB]2 z [EA]2 z | [DA]2 z [EG]2 z A3 =A3 | (B3 =B3) (c3 e3) | %100
 [F_d]3 [EGd]3 [EAc]3 =B2 f | f3 g3 g2 e cde | (_B3- Bcd A3- ABc) | (=B3 c2 B (c3-) c2 B) | %104
 [Ec]2 (g a3- a2 g- g3- | g2 f- f3- f2) (d c2 =B) | (c3- c2 =B) [Ec]3 c3 | def _B3 cde [Ac]3 | %108
 (f2 a g3) (g2 a f3) | e3 c3 def _B3 | cde [FA]2 [FAcf] [F=Bf]2 [Bda] [cg]2 [Bg] | %111
 [cg]2 [ca] [cfc']2 [df=b] [cegc']3- [cegc']2 :| %112
V:4
 EF G2 A4 | G2 x6 | x6 GF | EA F2 E2 G=E- | E2 G2 A>B c=A | =A4 [Bd]2 =B2 | G2 G_B _A2 =A2 | %7
 B2 =B>B c G3 | x2 ([Dd][^Fc] [GB]2) [Gg][=B=f] | cG G^F G4 | (G3 ^F G3 B) | A4 x4 | G E2 D x4 | %13
 x8 | x4 G3 G | G2 c2 c2 =Bc | d3 G G2 A2 | G2 [=B=d]2 [ce]_B A2 | F B2 c A2 G=B | %19
 =B2 F2 AG/A/ F2 | [EG]8 |][M:4/4] x | x3 E D3 [GB] | _A4 B G2 G | (B2 d2 c2 B2) | (c2 e2 d2 c2) | %26
 (d2 f2 e2) x2 | x2 A4 A2 | G2 x B (AGA)c | B2 x B (AGA)c | c2 x6 | x7 _A | x4 EG A2 | FA B2 GBce | %34
 B2 G2 A3 A | x8 | (E6 F2) | F2 x6 | [Be]3 B x4 | Gc A2 !tenuto!G2 x :: x | x8 | x8 | %43
 x3 [cd] =B3 [Bd] | c x5 G2 | x8 | x2 e2 B4 | _A4 G4 | F4 x4 | G4 G3 c | =BcdB c2 B2 | G4- G3 A | %52
 x4 c2 d2 | e2 =B2 c[Bd] [ce]c | _d/_A/c/A/ d/A/e/A/ f/A/e/A/ f/A/e/A/ | %55
 _d/A/e/A/ f/A/c/A/ =B[GB]G[Gc] | x8 | x2 f4 x2 | ([eg]2 [df]2 [ce]) c2 [=Bfg] | x7 :| x/4 | %61
[M:3/4] E2 F4 | E2 F2 G2 | (F6 | [EG]2 [FA]2 [GB]2) | x2 c2 B=A | x6 | [G=A]4 ([Ac]2 | %68
 [G=B]2 [=Ac]2 [Bd]2) :: (c4 (_d2 | [Bd]2) [Ac]2) G2 | x2 (B2 c2 | A2 G2) e2- | e2 d4- | d2 c4 | %75
 x6 |1 (E2 F2 G2) :|2 x6 |][M:12/8] x | x3 G3- G3 G3 | x12 | x12 | [CE]6 [DF]6 | [Ec]6 [D_B]6 | %84
 x9 G3 | =A2 x10 | x6 (^F3 G3- | G2) x9 :: x | (B6 A3) x3 | (A6 G3) x3 | x9 F3- | F x2 (B3 c3) A3 | %93
 x3 E6- E3- | E3 E6- EG[FA] | x6 G6 | G6 F2 x4 | x12 | x6 [CE]4 x2 | [DF]6 [EG]3 [F=A]2 x | %100
 (B2 _A) x6 =B2 c | =d3 =Bcd c3 c x2 | x12 | (F2 G- G3) (G2 A F3) | x2 e cde _B3- Bcd | %105
 A3- ABc =B2 G- G3 | G2 A F3 x6 | x12 | =B3 c2 B c2- x c2 B | [Gc]3 A6 G3 | G2 x10 | x11 :| %112
V:5
 G,3 C- C((C D2)) | (E/B,/E/B,/) G,2 z/ A,/C/A,/ F,2 | (G,/D,/)D,/E,/ F,2 z/ (D,/D/C/ =B,)G, | %3
 C(F,G,G,,) C,C ((_B,2 | B,/)C/_D/B,/) C,=E, F,2 _E,C, | %5
 (D,/^F,/=A,/D/) D,F, (G,/B,/D/B,/ G,/D,/=F,/G,/) | (E,2 =E,2 F,/)(F/A/F/ _E/)(E/_D/C/) | %7
 _D2 =D>D C2 EC | DCB,=A, G,=F,E,D, | C,/(C/B,/C/ D)D, G,=F,E,=A, | B,CDD, G,2 CC, | %11
 (F,/G,/A,/G,/ F,/G,/F,/E,/) D,2 DD, | (E,G,/A,/ B,)B,, E,2 z2 | C2 C,2 F,2 E2 | %14
 D2 D,2 (G,>_A, G,)=F, | (E,/G,/D,/G,/ C,)E (D/A/D/F/ D)C | (=B,/D/B,/D/ G,>)B, C2 F,2 | %17
 G,2 z G C2 z F, | B,G,CA, DC=B,G, | G,,2 G,2 (F,E,/F,/ G,)G,, | !fermata!C,8 |][M:4/4] z | %22
 z2 z C !tenuto!B,!tenuto!=A,!tenuto!B,!tenuto!G, | %23
 !tenuto!F,!tenuto!E,!tenuto!D,!tenuto!B,, !tenuto!E,!tenuto!E(!tenuto!D!tenuto!E) | %24
 G,EE,E A,EG,E | A,FF,F B,F=A,F | B,G=B,G C2 z2 | z CFC D2 B,2 | E,G,B,G, (CB,C)A, | %29
 E,G,B,G, (CB,C)A, | =A,/C/F,/C/ A,/C/F,/C/ B,/D/F,/D/ B,/D/F,/D/ | %31
 =A,/C/F,/C/ A,/C/F,/C/ B,/D/F,/D/ B,/D/F,/D/ | E2 E,2 _A,2 F,2 | B,2 G,2 (C3 B,/A,/) | %34
 G,2 E,2 (F,E,D,)B, | E,(A,B,)B,, (E,/B,,/G,,/B,,/ E,,2) | [G,,G,]2 [D,,E,]2 [A,,A,]2 z [A,,A,] | %37
 [B,,B,]3 [B,,B,] ([C,C]3 B,/A,/) | ([G,,G,]2 B,)G, !tenuto![C,C]2 z A, | %39
 B,A,B,B,, !tenuto![E,,E,]2 z :: z | z2 z C FC=A,F | D2 z B, EB,G,B, | A,2 z F, (G,A,G,)F, | %44
 E,[D,D][C,C][B,,B,] [=A,,=A,]2 [B,,B,][C,C] | [D,D][C,C][D,D][D,,D,] [G,,G,]2 z2 | %46
 =A,2 C/F/A,/F/ D2 E/G/C/G/ | F2 D/F/B,/F/ E2 C/E/=A,/E/ | D2 =B,/D/G,/D/ C2 [E,E][C,C] | %49
 [G,,G,][=A,,=A,][=B,,=B,][G,,G,] [C,C][_B,,_B,][C,C][_A,,_A,] | %50
 [G,,G,][=A,,=A,][=B,,=B,][G,,G,] [E,E][D,D][E,E][D,D] | %51
 [C,C][=B,,=B,][C,C][D,D] [E,E][F,F][E,E][F,F] | %52
 (G,/F,/G,/=A,/ G,/A,/=B,/G,/) (A,/B,/4A,/4).G,/.A,/ (B,/C/4B,/4)A,/B,/ | %53
 (C/D/4C/4).=B,/.C/ (D/E/4D/4).C/.D/ EDCE, | (F,E,)F,_G, A,G,(A,G,) | (F,_G,)A,F, =G,F,E,[C,C] | %56
 [A,,A,][F,,F,][G,,G,]G,, C,2 C_B, | A,G,F,E, D,2 E,F, | G,2 G,,2 C,[F,,F,][G,,G,]G,, | %59
 [C,,C,]6 z :| z/8 |[M:3/4] [C,C]2 [A,,A,]2 [G,,G,]2 | [C,,C,]2 [D,,D,]2 [E,,E,]2 | %63
 [F,,F,]2 [D,,D,]4 | [E,,E,]6 | [E,,E,]2 [C,,C,]4 | [D,,D,]2 [D,D][C,C] [B,,B,]2 | %67
 [C,C]2 [D,D]2 [D,,D,]2 | [G,,G,]6 :: [=E,,=E,]2 [F,,F,]2 [B,,B,]2 | [C,C]4 [B,,B,]2 | %71
 [A,,A,]2 [G,,G,]2 [A,,A,]2 | [B,,B,]2 [E,,E,]2 [C,C]2 | [F,,F,]4 [B,,B,]2 | [E,,E,]4 [A,,A,]2 | %75
 [G,,G,]2 [G,,,G,,]4 |1 ([C,,C,]2 [D,,D,]2 [E,,E,]2) :|2 [C,,C,]6 |][M:12/8] G, | %79
 C,3 (EF)D (EF)G F2 E | (DEF) (B,C)D E2 E, (EFG) | D2 D, C,2 C B,3 E,3 | A,3 F,3 B,3 G,3 | %83
 C3 F,3 B,3 E,3 | =A,3 B,2 C (DED B,A,G,) | (^F,=E,F, G,F,G, =A,G,A, B,A,B,) | %86
 C2 D B,2 C (D2 C B,=A,G,) | (=A,B,C DCD) G,3 z z :: G, | (=E,3 C,3 F,3) z2 z | %90
 (D,3 B,,3 _E,3) z2 z | C,3 z2 z [A,,A,]3 [A,,A,]3 | [A,,A,]3 [G,,G,]3 [A,,A,]3 [B,,B,]3 | %93
 [E,,E,]3 G,3 A,3 B,3 | C3 [G,,G,]3 [A,,A,]3 [B,,B,]3 | [E,,E,]3 [E,,E,] z z C,2 D, E,F,D, | %96
 E,F,G, F,(FE DED B,CD | E2) E, (EFG) D3 C3 | B,3 E,3 A,3 F,3 | B,3 G,3 C3 F,3 | %100
 B,3 E,3 A,3 (FGA) | (G(FG) DEF) (E2 C A,B,C) | (D2 B, G,A,B,) (C2 A, F,G,A,) | %103
 (G,2 F, E,2 D,) (E,2 F, G,2) G,, | C,2 (C A,B,C D2 B, G,A,B, | C2 A, F,G,A,) (G,2 F, E,2 D,) | %106
 E,2 F, G,2 G,, C,3 FEF | B,CD EDE A,B,C DCD | (G,A,F, E,2 D,) (E,2 F, G,2 G,,) | %109
 C,3 [F,F][E,E][F,F] [B,,B,][C,C][D,D] [E,E][D,D][E,E] | %110
 [A,,A,][B,,B,][C,C] [D,D][C,C][D,D] [G,,G,][A,,A,][F,,F,] [E,,E,]2 [D,,D,] | %111
 [E,,E,]2 [F,,F,] [G,,G,]2 [G,,,G,,] [C,,C,]3- [C,,C,]2 :| %112
V:6
 (C,D,E,C, F,3) F, | E,2 x6 | x8 | x8 | x8 | x8 | x8 | x8 | x8 | x8 | x8 | x8 | x8 | x8 | x8 | x8 | %16
 x8 | x8 | x8 | x8 | x8 |][M:4/4] x | x8 | x8 | x8 | x8 | x8 | x8 | x8 | x8 | x8 | x8 | x8 | x8 | %34
 x8 | x8 | x8 | x8 | x8 | x7 :: x | x8 | x8 | x8 | x8 | x8 | x8 | x8 | x8 | x8 | x8 | x8 | x8 | %53
 x8 | x8 | x8 | x8 | x8 | x8 | x7 :| x/4 |[M:3/4] x6 | x6 | x6 | x6 | x6 | x6 | x6 | x6 :: x6 | %70
 x6 | x6 | x6 | x6 | x6 | x6 |1 x6 :|2 x6 |][M:12/8] x | x12 | x12 | x12 | x12 | x12 | x12 | x12 | %86
 x12 | x11 :: x | x12 | x12 | x12 | x12 | x12 | x12 | x12 | x12 | x12 | x12 | x12 | x12 | x12 | %102
 x12 | x12 | x12 | x12 | x12 | x12 | x12 | x12 | x12 | x11 :| %112

